images/self-employed-icon.svg

<svg width="103" height="123" viewBox="0 0 103 123" fill="none" xmlns="http://www.w3.org/2000/svg">
<g clip-path="url(#clip0_532_2)">
<path fill-rule="evenodd" clip-rule="evenodd" d="M51.3098 103.57C54.2698 103.57 56.6598 105.97 56.6598 108.92C56.6598 111.88 54.2598 114.27 51.3098 114.27C48.3498 114.27 45.9598 111.87 45.9598 108.92C45.9598 105.96 48.3598 103.57 51.3098 103.57ZM31.2498 37.01C30.1398 37.05 29.2898 37.28 28.7098 37.67C28.3798 37.89 28.1398 38.17 27.9798 38.51C27.8098 38.88 27.7298 39.3401 27.7398 39.8601C27.7798 41.3901 28.5898 43.39 30.1398 45.69L30.1598 45.7201L35.1898 53.7201C37.2098 56.9301 39.3198 60.2 41.9498 62.6C44.4798 64.91 47.5398 66.47 51.5998 66.48C55.9898 66.49 59.1998 64.87 61.8098 62.43C64.5198 59.89 66.6598 56.41 68.7698 52.94L74.4398 43.6101C75.4998 41.2001 75.8798 39.59 75.6398 38.64C75.4998 38.08 74.8798 37.8 73.8198 37.75C73.5998 37.74 73.3598 37.7401 73.1298 37.7401C72.8798 37.7501 72.6098 37.7601 72.3398 37.7901C72.1898 37.8001 72.0398 37.79 71.8998 37.76C71.3998 37.79 70.8798 37.75 70.3498 37.68L72.2898 29.09C57.8898 31.36 47.1198 20.67 31.8998 26.95L32.9998 37.07C32.3698 37.11 31.7798 37.09 31.2498 37.01ZM75.7298 35.2001C77.1198 35.6201 78.0198 36.51 78.3798 37.94C78.7798 39.53 78.3498 41.7601 76.9998 44.8101C76.9798 44.8701 76.9498 44.9201 76.9198 44.9701L71.1898 54.41C68.9798 58.05 66.7398 61.7 63.7398 64.5L63.5898 64.63C63.8798 65.04 64.1898 65.5 64.5098 65.97C65.4998 67.43 66.6398 69.09 67.6898 70.39C73.9198 74.26 87.6198 75.31 92.9798 78.29C106.62 85.89 101.64 104.36 102.63 117.65C102.34 120.79 100.56 122.59 97.0498 122.86H93.2598L97.4098 91.36C97.7298 88.91 95.9898 86.9 93.8498 86.9H64.6498C65.3698 81.75 65.8998 76.83 66.1398 73.12C64.7798 71.6 63.3198 69.47 62.0698 67.63C61.7898 67.22 61.5198 66.83 61.2698 66.46C58.6398 68.23 55.5098 69.32 51.5898 69.31C47.2198 69.3 43.8198 67.8 40.9898 65.51C40.1998 67.88 39.0298 71.14 37.9098 72.69C37.8098 72.83 37.6898 72.95 37.5598 73.04C38.0398 76.88 38.7098 81.8 39.4998 86.9H9.57983C7.43983 86.9 5.68983 88.91 6.01983 91.36L10.1698 122.86H6.37983C2.87983 122.59 1.09983 120.79 0.809831 117.65C0.979831 103.58 -4.36017 86.55 10.4598 78.29C15.8898 75.26 29.8798 74.23 35.9898 70.23C36.9198 68.48 37.9598 65.3301 38.5798 63.4501C38.6498 63.2401 38.5298 63.5901 38.6398 63.2701C36.3998 60.86 34.5598 58.01 32.7998 55.21L27.7698 47.21C25.9298 44.47 24.9698 41.9601 24.9198 39.9001C24.8898 38.9301 25.0598 38.05 25.4098 37.28C25.7898 36.47 26.3598 35.7901 27.1398 35.2701C27.4998 35.0201 27.9098 34.8201 28.3598 34.6501C28.0298 30.3101 27.9098 24.85 28.1198 20.27C28.2298 19.18 28.4398 18.1 28.7398 17.01C30.5798 10.43 36.2398 5.69005 42.6998 3.46005C45.8298 2.38005 44.6198 -0.199952 47.7898 -0.0299518C55.2998 0.380048 66.8798 5.22005 71.3298 10.35C77.5498 17.58 75.9498 26.43 75.7298 35.2001ZM41.3598 79.19C38.8198 76.3 38.6098 73.28 41.3598 70.08C44.5398 70.88 47.4598 72.26 50.1398 74.12C50.7198 73.87 51.3898 73.76 52.0498 73.81C54.8398 71.83 58.3998 71.04 61.5098 69.55C65.2198 73.17 64.8298 76.49 61.1698 79.59C59.1298 79.12 57.1898 78.4 55.3298 77.46C55.2798 77.94 55.1498 78.46 54.9298 79.03L55.8798 86.92H48.2998L49.2498 79.03C48.6598 78.03 48.4298 77.17 48.4498 76.46C46.2498 77.78 43.8598 78.62 41.3598 79.19Z" fill="white"/>
</g>
<defs>
<clipPath id="clip0_532_2">
<rect width="102.74" height="122.88" fill="white"/>
</clipPath>
</defs>
</svg>

<?xml version="1.0" encoding="utf-8"?><svg version="1.1" id="Layer_1" xmlns="http://www.w3.org/2000/svg" xmlns:xlink="http://www.w3.org/1999/xlink" x="0px" y="0px" viewBox="0 0 102.74 122.88" style="enable-background:new 0 0 102.74 122.88" xml:space="preserve"><style type="text/css">.st0{fill-rule:evenodd;clip-rule:evenodd;}</style><g><path class="st0" d="M51.31,103.57c2.96,0,5.35,2.4,5.35,5.35c0,2.96-2.4,5.35-5.35,5.35c-2.96,0-5.35-2.4-5.35-5.35 C45.96,105.96,48.36,103.57,51.31,103.57L51.31,103.57z M31.25,37.01c-1.11,0.04-1.96,0.27-2.54,0.66 c-0.33,0.22-0.57,0.5-0.73,0.84c-0.17,0.37-0.25,0.83-0.24,1.35c0.04,1.53,0.85,3.53,2.4,5.83l0.02,0.03l0,0l5.03,8 c2.02,3.21,4.13,6.48,6.76,8.88c2.53,2.31,5.59,3.87,9.65,3.88c4.39,0.01,7.6-1.61,10.21-4.05c2.71-2.54,4.85-6.02,6.96-9.49 l5.67-9.33c1.06-2.41,1.44-4.02,1.2-4.97c-0.14-0.56-0.76-0.84-1.82-0.89c-0.22-0.01-0.46-0.01-0.69-0.01 c-0.25,0.01-0.52,0.02-0.79,0.05c-0.15,0.01-0.3,0-0.44-0.03c-0.5,0.03-1.02-0.01-1.55-0.08l1.94-8.59 c-14.4,2.27-25.17-8.42-40.39-2.14l1.1,10.12C32.37,37.11,31.78,37.09,31.25,37.01L31.25,37.01L31.25,37.01z M75.73,35.2 c1.39,0.42,2.29,1.31,2.65,2.74c0.4,1.59-0.03,3.82-1.38,6.87l0,0c-0.02,0.06-0.05,0.11-0.08,0.16l-5.73,9.44 c-2.21,3.64-4.45,7.29-7.45,10.09l-0.15,0.13c0.29,0.41,0.6,0.87,0.92,1.34c0.99,1.46,2.13,3.12,3.18,4.42 c6.23,3.87,19.93,4.92,25.29,7.9c13.64,7.6,8.66,26.07,9.65,39.36c-0.29,3.14-2.07,4.94-5.58,5.21h-3.79l4.15-31.5 c0.32-2.45-1.42-4.46-3.56-4.46h-29.2c0.72-5.15,1.25-10.07,1.49-13.78c-1.36-1.52-2.82-3.65-4.07-5.49 c-0.28-0.41-0.55-0.8-0.8-1.17c-2.63,1.77-5.76,2.86-9.68,2.85c-4.37-0.01-7.77-1.51-10.6-3.8c-0.79,2.37-1.96,5.63-3.08,7.18 c-0.1,0.14-0.22,0.26-0.35,0.35c0.48,3.84,1.15,8.76,1.94,13.86H9.58c-2.14,0-3.89,2.01-3.56,4.46l4.15,31.5H6.38 c-3.5-0.27-5.28-2.07-5.57-5.21c0.17-14.07-5.17-31.1,9.65-39.36c5.43-3.03,19.42-4.06,25.53-8.06c0.93-1.75,1.97-4.9,2.59-6.78 c0.07-0.21-0.05,0.14,0.06-0.18c-2.24-2.41-4.08-5.26-5.84-8.06l-5.03-8c-1.84-2.74-2.8-5.25-2.85-7.31 c-0.03-0.97,0.14-1.85,0.49-2.62c0.38-0.81,0.95-1.49,1.73-2.01c0.36-0.25,0.77-0.45,1.22-0.62c-0.33-4.34-0.45-9.8-0.24-14.38 c0.11-1.09,0.32-2.17,0.62-3.26c1.84-6.58,7.5-11.32,13.96-13.55c3.13-1.08,1.92-3.66,5.09-3.49c7.51,0.41,19.09,5.25,23.54,10.38 C77.55,17.58,75.95,26.43,75.73,35.2L75.73,35.2L75.73,35.2z M41.36,79.19c-2.54-2.89-2.75-5.91,0-9.11 c3.18,0.8,6.1,2.18,8.78,4.04c0.58-0.25,1.25-0.36,1.91-0.31c2.79-1.98,6.35-2.77,9.46-4.26c3.71,3.62,3.32,6.94-0.34,10.04 c-2.04-0.47-3.98-1.19-5.84-2.13c-0.05,0.48-0.18,1-0.4,1.57l0.95,7.89h-7.58l0.95-7.89c-0.59-1-0.82-1.86-0.8-2.57 C46.25,77.78,43.86,78.62,41.36,79.19L41.36,79.19z"/></g></svg>
